public/vendors/feather/icons/move.svg

<svg xmlns="http://www.w3.org/2000/svg" width="24" height="24" fill="none" stroke="currentColor" stroke-width="2" stroke-linecap="round" stroke-linejoin="round" class="feather feather-move"><path d="M5 9l-3 3 3 3M9 5l3-3 3 3m0 14l-3 3-3-3M19 9l3 3-3 3M2 12h20M12 2v20"/></svg>

<svg xmlns="http://www.w3.org/2000/svg" width="24" height="24" fill="none" stroke="currentColor" stroke-width="2" stroke-linecap="round" stroke-linejoin="round" class="feather feather-move"><path d="M5 9L2 12 5 15"/><path d="M9 5L12 2 15 5"/><path d="M15 19L12 22 9 19"/><path d="M19 9L22 12 19 15"/><path d="M2 12L22 12"/><path d="M12 2L12 22"/></svg>
